images/elem_air_or_dark.svg

<svg height="560" viewBox="0 0 560 560" width="560" xmlns="http://www.w3.org/2000/svg"><path d="m280 418.41v-4.06c-57.36-17.36-117.66-67.94-150.12-83.44-31.15-14.88-44.58-18.09-71.24-23.69-1.38-.29-1.32-2.29.08-2.48 12.51-1.67 42.56-2.76 81.66 15.67 38.07 17.93 93.26 52.07 139.62 67.91v-61.97c-19.42 3.97-40.62 4.79-62.19-.94-37.15-9.88-48.55-13.18-69.76-24.78-.97-.54-.35-2.02.7-1.69 22.24 6.79 78.78 19.58 119.63 8.97 4.1-1.07 7.95-2.23 11.62-3.47v-34.27c-20.04 1.3-38.11-6.07-43.62-21.76-9.19-26.17 9.75-49.25 29-49 7.79.1 12.17 3.14 14.62 6.85v-44.61c-25.5-2.2-41.99 19.7-57.12 47.76-13.75 25.5-29.25 58-76.5 60.72-34.63 1.99-48.04-.75-54.7-3.3-1.26-.49-.87-2.37.48-2.32 17.13.7 65.05-.09 90.22-28.1 31-34.5 23.94-58.04 51.5-83 10.25-9.29 27.53-15.2 46.12-14.7v-9.7-113.01c-145.8 0-264 118.2-264 264s118.2 264 264 264v-113z" fill="#93b7bb"/><path d="m268.63 210.66c-10.45 1.57-19.68 14.67-14.25 27.75 3.64 8.77 13.78 14.89 25.62 14.78v-37.17c-2.54-2.84-6.57-6.09-11.37-5.36z" fill="#93b7bb"/><g fill="#fff"><path d="m58.72 304.74c-1.4.19-1.46 2.19-.08 2.48 26.66 5.6 40.09 8.81 71.24 23.69 32.46 15.5 92.76 66.08 150.12 83.44v-26.03c-46.36-15.84-101.55-49.98-139.62-67.91-39.1-18.43-69.15-17.34-81.66-15.67z"/><path d="m148.75 298.94c-1.05-.33-1.67 1.15-.7 1.69 21.21 11.6 32.61 14.9 69.76 24.78 21.57 5.73 42.77 4.91 62.19.94v-21.91c-3.67 1.24-7.52 2.4-11.62 3.47-40.85 10.61-97.39-2.18-119.63-8.97z"/><path d="m233.88 153.41c-27.56 24.96-20.5 48.5-51.5 83-25.17 28.01-73.09 28.8-90.22 28.1-1.35-.05-1.74 1.83-.48 2.32 6.66 2.55 20.07 5.29 54.7 3.3 47.25-2.72 62.75-35.22 76.5-60.72 15.13-28.06 31.62-49.96 57.12-47.76v-20.05-2.89c-18.59-.5-35.87 5.41-46.12 14.7z"/><path d="m254.38 238.41c-5.43-13.08 3.8-26.18 14.25-27.75 4.8-.73 8.83 2.52 11.37 5.36v-9.76c-2.45-3.71-6.83-6.75-14.62-6.85-19.25-.25-38.19 22.83-29 49 5.51 15.69 23.58 23.06 43.62 21.76v-16.98c-11.84.11-21.98-6.01-25.62-14.78z"/></g><path d="m544 280c0-145.8-118.2-264-264-264v113s.01 0 .01.01c14.51-4.42 29.89-6.79 45.82-6.79 87 0 157.78 70.78 157.78 157.79 0 87-70.78 157.78-157.78 157.78-15.93 0-31.31-2.37-45.82-6.79h-.01v113c145.8 0 264-118.2 264-264z" fill="#1d2a33"/><path d="m297.51 411.3c48.75-23.62 82.45-73.59 82.45-131.29 0-57.71-33.7-107.69-82.45-131.3-5.64-2.74-11.49-5.12-17.51-7.11v276.81c6.02-1.99 11.87-4.39 17.51-7.11z" fill="#1d2a33"/><path d="m322.64 149.43c73.09 1.2 131.97 59.19 131.97 130.58 0 71.37-58.87 129.36-131.96 130.56-1.74 1.18-3.49 2.34-5.28 3.45-5.62 3.5-11.48 6.66-17.54 9.45 8.44 1.52 17.13 2.32 26 2.32 80.38 0 145.78-65.4 145.78-145.78 0-80.39-65.4-145.79-145.78-145.79-8.87 0-17.56.79-26 2.32 6.06 2.78 11.91 5.93 17.53 9.43 1.79 1.12 3.54 2.28 5.28 3.46z" fill="#1d2a33"/><path d="m560 280c0 37.79-7.41 74.46-22.01 108.99-14.1 33.35-34.29 63.29-60 89s-55.65 45.9-89 60c-34.53 14.6-71.2 22.01-108.99 22.01s-74.46-7.41-108.99-22.01c-33.35-14.1-63.29-34.29-89-60s-45.9-55.65-60-89c-14.61-34.53-22.01-71.2-22.01-108.99s7.4-74.46 22.01-108.99c14.1-33.35 34.29-63.29 60-89s55.65-45.9 89-60c34.53-14.61 71.2-22.01 108.99-22.01s74.46 7.4 108.99 22.01c33.35 14.1 63.29 34.29 89 60s45.9 55.65 60 89c14.6 34.53 22.01 71.2 22.01 108.99zm-16 0c0-145.8-118.2-264-264-264s-264 118.2-264 264 118.2 264 264 264 264-118.2 264-264z" fill="#fff" fill-rule="evenodd"/><path d="m280 129s.01 0 .01.01c14.51-4.42 29.89-6.79 45.82-6.79 87 0 157.78 70.78 157.78 157.79 0 87-70.78 157.78-157.78 157.78-15.93 0-31.31-2.37-45.82-6.79h-.01v-12.59c6.02-1.99 11.87-4.39 17.51-7.11 48.75-23.62 82.45-73.59 82.45-131.29 0-57.71-33.7-107.69-82.45-131.3-5.64-2.74-11.49-5.12-17.51-7.11zm19.83 7.54c6.06 2.78 11.91 5.93 17.53 9.43 1.79 1.12 3.54 2.28 5.28 3.46 73.09 1.2 131.97 59.19 131.97 130.58 0 71.37-58.87 129.36-131.96 130.56-1.74 1.18-3.49 2.34-5.28 3.45-5.62 3.5-11.48 6.66-17.54 9.45 8.44 1.52 17.13 2.32 26 2.32 80.38 0 145.78-65.4 145.78-145.78 0-80.39-65.4-145.79-145.78-145.79-8.87 0-17.56.79-26 2.32z" fill="#fff" fill-rule="evenodd"/></svg>

<svg version="1.2" baseProfile="tiny-ps" xmlns="http://www.w3.org/2000/svg" viewBox="0 0 560 560" width="560" height="560">
	<title>Layer 1</title>
	<style>
		tspan { white-space:pre }
		.shp0 { fill: #93b7bb } 
		.shp1 { fill: #ffffff } 
		.shp2 { fill: #1d2a33 } 
	</style>
	<g id="Layer 1">
		<g id="&lt;Group&gt;">
			<g id="&lt;Group&gt;">
				<path id="&lt;Path&gt;" class="shp0" d="M280 418.41L280 414.35C222.64 396.99 162.34 346.41 129.88 330.91C98.73 316.03 85.3 312.82 58.64 307.22C57.26 306.93 57.32 304.93 58.72 304.74C71.23 303.07 101.28 301.98 140.38 320.41C178.45 338.34 233.64 372.48 280 388.32L280 326.35C260.58 330.32 239.38 331.14 217.81 325.41C180.66 315.53 169.26 312.23 148.05 300.63C147.08 300.09 147.7 298.61 148.75 298.94C170.99 305.73 227.53 318.52 268.38 307.91C272.48 306.84 276.33 305.68 280 304.44L280 270.17C259.96 271.47 241.89 264.1 236.38 248.41C227.19 222.24 246.13 199.16 265.38 199.41C273.17 199.51 277.55 202.55 280 206.26L280 161.65C254.5 159.45 238.01 181.35 222.88 209.41C209.13 234.91 193.63 267.41 146.38 270.13C111.75 272.12 98.34 269.38 91.68 266.83C90.42 266.34 90.81 264.46 92.16 264.51C109.29 265.21 157.21 264.42 182.38 236.41C213.38 201.91 206.32 178.37 233.88 153.41C244.13 144.12 261.41 138.21 280 138.71L280 129.01L280 16C134.2 16 16 134.2 16 280C16 425.8 134.2 544 280 544L280 431L280 418.41Z" />
				<path id="&lt;Path&gt;" class="shp0" d="M268.63 210.66C258.18 212.23 248.95 225.33 254.38 238.41C258.02 247.18 268.16 253.3 280 253.19L280 216.02C277.46 213.18 273.43 209.93 268.63 210.66Z" />
				<path id="&lt;Path&gt;" class="shp1" d="M58.72 304.74C57.32 304.93 57.26 306.93 58.64 307.22C85.3 312.82 98.73 316.03 129.88 330.91C162.34 346.41 222.64 396.99 280 414.35L280 388.32C233.64 372.48 178.45 338.34 140.38 320.41C101.28 301.98 71.23 303.07 58.72 304.74Z" />
				<path id="&lt;Path&gt;" class="shp1" d="M148.75 298.94C147.7 298.61 147.08 300.09 148.05 300.63C169.26 312.23 180.66 315.53 217.81 325.41C239.38 331.14 260.58 330.32 280 326.35L280 304.44C276.33 305.68 272.48 306.84 268.38 307.91C227.53 318.52 170.99 305.73 148.75 298.94Z" />
				<path id="&lt;Path&gt;" class="shp1" d="M233.88 153.41C206.32 178.37 213.38 201.91 182.38 236.41C157.21 264.42 109.29 265.21 92.16 264.51C90.81 264.46 90.42 266.34 91.68 266.83C98.34 269.38 111.75 272.12 146.38 270.13C193.63 267.41 209.13 234.91 222.88 209.41C238.01 181.35 254.5 159.45 280 161.65L280 141.6L280 138.71C261.41 138.21 244.13 144.12 233.88 153.41Z" />
				<path id="&lt;Path&gt;" class="shp1" d="M254.38 238.41C248.95 225.33 258.18 212.23 268.63 210.66C273.43 209.93 277.46 213.18 280 216.02L280 206.26C277.55 202.55 273.17 199.51 265.38 199.41C246.13 199.16 227.19 222.24 236.38 248.41C241.89 264.1 259.96 271.47 280 270.17L280 253.19C268.16 253.3 258.02 247.18 254.38 238.41Z" />
			</g>
			<g id="&lt;Group&gt;">
				<path id="&lt;Path&gt;" class="shp2" d="M544 280C544 134.2 425.8 16 280 16L280 129C280 129 280.01 129 280.01 129.01C294.52 124.59 309.9 122.22 325.83 122.22C412.83 122.22 483.61 193 483.61 280.01C483.61 367.01 412.83 437.79 325.83 437.79C309.9 437.79 294.52 435.42 280.01 431C280.01 431 280 431 280 431L280 431L280 544C425.8 544 544 425.8 544 280Z" />
				<path id="&lt;Path&gt;" class="shp2" d="M297.51 411.3C346.26 387.68 379.96 337.71 379.96 280.01C379.96 222.3 346.26 172.32 297.51 148.71C291.87 145.97 286.02 143.59 280 141.6C280 141.6 280 141.6 280 141.6L280 141.6L280 418.41C280 418.41 280 418.41 280 418.41C286.02 416.42 291.87 414.02 297.51 411.3Z" />
				<path id="&lt;Path&gt;" class="shp2" d="M322.64 149.43C395.73 150.63 454.61 208.62 454.61 280.01C454.61 351.38 395.74 409.37 322.65 410.57C320.91 411.75 319.16 412.91 317.37 414.02C311.75 417.52 305.89 420.68 299.83 423.47C308.27 424.99 316.96 425.79 325.83 425.79C406.21 425.79 471.61 360.39 471.61 280.01C471.61 199.62 406.21 134.22 325.83 134.22C316.96 134.22 308.27 135.01 299.83 136.54C305.89 139.32 311.74 142.47 317.36 145.97C319.15 147.09 320.9 148.25 322.64 149.43Z" />
				<path id="&lt;Compound Path&gt;" fill-rule="evenodd" class="shp1" d="M560 280C560 317.79 552.59 354.46 537.99 388.99C523.89 422.34 503.7 452.28 477.99 477.99C452.28 503.7 422.34 523.89 388.99 537.99C354.46 552.59 317.79 560 280 560C242.21 560 205.54 552.59 171.01 537.99C137.66 523.89 107.72 503.7 82.01 477.99C56.3 452.28 36.11 422.34 22.01 388.99C7.4 354.46 0 317.79 0 280C0 242.21 7.4 205.54 22.01 171.01C36.11 137.66 56.3 107.72 82.01 82.01C107.72 56.3 137.66 36.11 171.01 22.01C205.54 7.4 242.21 0 280 0C317.79 0 354.46 7.4 388.99 22.01C422.34 36.11 452.28 56.3 477.99 82.01C503.7 107.72 523.89 137.66 537.99 171.01C552.59 205.54 560 242.21 560 280ZM544 280C544 134.2 425.8 16 280 16C134.2 16 16 134.2 16 280C16 425.8 134.2 544 280 544C425.8 544 544 425.8 544 280Z" />
				<path id="&lt;Compound Path&gt;" fill-rule="evenodd" class="shp1" d="M280 129C280 129 280.01 129 280.01 129.01C294.52 124.59 309.9 122.22 325.83 122.22C412.83 122.22 483.61 193 483.61 280.01C483.61 367.01 412.83 437.79 325.83 437.79C309.9 437.79 294.52 435.42 280.01 431C280.01 431 280 431 280 431L280 418.41C280 418.41 280 418.41 280 418.41C286.02 416.42 291.87 414.02 297.51 411.3C346.26 387.68 379.96 337.71 379.96 280.01C379.96 222.3 346.26 172.32 297.51 148.71C291.87 145.97 286.02 143.59 280 141.6C280 141.6 280 141.6 280 141.6L280 129ZM299.83 136.54C305.89 139.32 311.74 142.47 317.36 145.97C319.15 147.09 320.9 148.25 322.64 149.43C395.73 150.63 454.61 208.62 454.61 280.01C454.61 351.38 395.74 409.37 322.65 410.57C320.91 411.75 319.16 412.91 317.37 414.02C311.75 417.52 305.89 420.68 299.83 423.47C308.27 424.99 316.96 425.79 325.83 425.79C406.21 425.79 471.61 360.39 471.61 280.01C471.61 199.62 406.21 134.22 325.83 134.22C316.96 134.22 308.27 135.01 299.83 136.54Z" />
			</g>
		</g>
	</g>
</svg>
